build/img/icon-odt.svg

<svg width="24" height="24" viewBox="0 0 24 24" fill="none" xmlns="http://www.w3.org/2000/svg">
<path d="M3 1H17V4V5H18H21V23H3V1ZM19 2.41421L19.5858 3H19V2.41421Z" fill="white" stroke="#9BD2F4" stroke-width="2"/>
<mask id="path-2-inside-1" fill="white">
<rect y="8" width="24" height="12" rx="1"/>
</mask>
<rect y="8" width="24" height="12" rx="1" fill="white" stroke="#9BD2F4" stroke-width="4" mask="url(#path-2-inside-1)"/>
<path d="M6.81116 17.08C6.08582 17.08 5.52049 16.896 5.11516 16.528C4.70982 16.16 4.49649 15.6133 4.47516 14.888C4.46982 14.7333 4.46716 14.5067 4.46716 14.208C4.46716 13.904 4.46982 13.6747 4.47516 13.52C4.49649 12.8107 4.71516 12.2667 5.13116 11.888C5.54716 11.5093 6.10716 11.32 6.81116 11.32C7.51516 11.32 8.07516 11.5093 8.49116 11.888C8.91249 12.2667 9.13382 12.8107 9.15516 13.52C9.16582 13.8293 9.17116 14.0587 9.17116 14.208C9.17116 14.352 9.16582 14.5787 9.15516 14.888C9.12849 15.6133 8.91249 16.16 8.50716 16.528C8.10182 16.896 7.53649 17.08 6.81116 17.08ZM6.81116 16.16C7.16849 16.16 7.45382 16.0533 7.66716 15.84C7.88049 15.6213 7.99516 15.2907 8.01116 14.848C8.02182 14.528 8.02716 14.312 8.02716 14.2C8.02716 14.0773 8.02182 13.8613 8.01116 13.552C7.99516 13.1093 7.88049 12.7813 7.66716 12.568C7.45382 12.3493 7.16849 12.24 6.81116 12.24C6.45916 12.24 6.17649 12.3493 5.96316 12.568C5.74982 12.7813 5.63516 13.1093 5.61916 13.552C5.61382 13.7067 5.61116 13.9227 5.61116 14.2C5.61116 14.472 5.61382 14.688 5.61916 14.848C5.63516 15.2907 5.74716 15.6213 5.95516 15.84C6.16849 16.0533 6.45382 16.16 6.81116 16.16ZM10.4137 17C10.3603 17 10.315 16.9813 10.2777 16.944C10.2403 16.9067 10.2217 16.8613 10.2217 16.808V11.6C10.2217 11.5413 10.2377 11.4933 10.2697 11.456C10.307 11.4187 10.355 11.4 10.4137 11.4H12.3657C13.9337 11.4 14.7337 12.1253 14.7657 13.576C14.7763 13.8853 14.7817 14.0933 14.7817 14.2C14.7817 14.3013 14.7763 14.5067 14.7657 14.816C14.7443 15.5627 14.5443 16.1147 14.1657 16.472C13.787 16.824 13.2003 17 12.4057 17H10.4137ZM12.3657 16.08C12.8137 16.08 13.1363 15.9813 13.3337 15.784C13.531 15.5813 13.635 15.2507 13.6457 14.792C13.6563 14.472 13.6617 14.272 13.6617 14.192C13.6617 14.1067 13.6563 13.9093 13.6457 13.6C13.635 13.1627 13.523 12.84 13.3097 12.632C13.1017 12.424 12.7737 12.32 12.3257 12.32H11.3337V16.08H12.3657ZM17.1691 17C17.1158 17 17.0704 16.9813 17.0331 16.944C16.9958 16.9067 16.9771 16.8613 16.9771 16.808V12.384H15.4971C15.4438 12.384 15.3984 12.3653 15.3611 12.328C15.3238 12.2907 15.3051 12.2453 15.3051 12.192V11.6C15.3051 11.5413 15.3211 11.4933 15.3531 11.456C15.3904 11.4187 15.4384 11.4 15.4971 11.4H19.5771C19.6358 11.4 19.6838 11.4187 19.7211 11.456C19.7584 11.4933 19.7771 11.5413 19.7771 11.6V12.192C19.7771 12.2453 19.7584 12.2907 19.7211 12.328C19.6838 12.3653 19.6358 12.384 19.5771 12.384H18.1051V16.808C18.1051 16.8613 18.0864 16.9067 18.0491 16.944C18.0118 16.9813 17.9638 17 17.9051 17H17.1691Z" fill="#2C8ECC"/>
</svg>

<svg width="24" height="24" fill="none" xmlns="http://www.w3.org/2000/svg"><path d="M3 1h14v4h4v18H3V1zm16 1.414l.586.586H19v-.586z" fill="#fff" stroke="#9BD2F4" stroke-width="2"/><mask id="a" fill="#fff"><rect y="8" width="24" height="12" rx="1"/></mask><rect y="8" width="24" height="12" rx="1" fill="#fff" stroke="#9BD2F4" stroke-width="4" mask="url(#a)"/><path d="M6.811 17.08c-.725 0-1.29-.184-1.696-.552-.405-.368-.619-.915-.64-1.64a21.366 21.366 0 01-.008-.68c0-.304.003-.533.008-.688.021-.71.24-1.253.656-1.632.416-.379.976-.568 1.68-.568s1.264.19 1.68.568c.421.379.643.923.664 1.632.01.31.016.539.016.688 0 .144-.005.37-.016.68-.027.725-.243 1.272-.648 1.64-.405.368-.97.552-1.696.552zm0-.92c.357 0 .643-.107.856-.32.213-.219.328-.55.344-.992.01-.32.016-.536.016-.648 0-.123-.005-.339-.016-.648-.016-.443-.13-.77-.344-.984-.213-.219-.499-.328-.856-.328-.352 0-.635.11-.848.328-.213.213-.328.541-.344.984-.005.155-.008.37-.008.648 0 .272.003.488.008.648.016.443.128.773.336.992.213.213.499.32.856.32zm3.603.84a.185.185 0 01-.136-.056.185.185 0 01-.056-.136V11.6c0-.059.016-.107.048-.144a.195.195 0 01.144-.056h1.952c1.568 0 2.368.725 2.4 2.176.01.31.016.517.016.624 0 .101-.006.307-.016.616-.022.747-.222 1.299-.6 1.656-.379.352-.966.528-1.76.528h-1.992zm1.952-.92c.448 0 .77-.099.968-.296.197-.203.301-.533.312-.992.01-.32.016-.52.016-.6 0-.085-.006-.283-.016-.592-.011-.437-.123-.76-.336-.968-.208-.208-.536-.312-.984-.312h-.992v3.76h1.032zm4.803.92a.185.185 0 01-.136-.056.185.185 0 01-.056-.136v-4.424h-1.48a.185.185 0 01-.136-.056.185.185 0 01-.056-.136V11.6c0-.059.016-.107.048-.144a.195.195 0 01.144-.056h4.08c.059 0 .107.019.144.056a.195.195 0 01.056.144v.592a.185.185 0 01-.056.136.195.195 0 01-.144.056h-1.472v4.424a.185.185 0 01-.056.136.195.195 0 01-.144.056h-.736z" fill="#2C8ECC"/></svg>
